X:1085
T:The Volunteer
C:John Young, 1710
R:Triple-time
L:1/4
M:3/2
S:Colin Hume's website,  colinhume.com  - chords can also be printed below the stave.
%%MIDI gchord fcHcfc
Q:1/2=100
K:Bm
P:A
|: "Bm"BF/E/ DF "Em"B,G | "Bm"FB FB "F#7"^A/B/c | "Bm"dc/B/ "D"AG/F/ "A7"EF/G/ | "D"F3E D2 |
"A7"ag/f/ ef "F#7/A#"ge | "Bm"fe/d/ cd "A"eA | "G"BA/G/ "D/F#"FA "A7/E"Ed/c/ | "D"d3e d2 :|
P:B
|: "D"FF/G/ AF AF | "Em"EE/F/ GE GB | "F#7"^AB/c/ "D"dB "Em"c/d/c/B/ | "F#7"^A3B c2 |
"D"dd/e/ fd fd | "A"cc/d/ ec "F#7/A#"ec | "Bm"Bd/c/ dB "F#7"F B/^A/ | "Bm"B3c B2 :|

